icons/arrow-circle-topB.svg

<svg width="24" height="24" viewBox="0 0 24 24" fill="none" xmlns="http://www.w3.org/2000/svg">
<path d="M12 21C16.9706 21 21 16.9706 21 12C21 7.02944 16.9706 3 12 3C7.02944 3 3 7.02944 3 12C3 16.9706 7.02944 21 12 21Z" fill="black"/>
<path fill-rule="evenodd" clip-rule="evenodd" d="M12 3.75C7.44365 3.75 3.75 7.44365 3.75 12C3.75 16.5563 7.44365 20.25 12 20.25C16.5563 20.25 20.25 16.5563 20.25 12C20.25 7.44365 16.5563 3.75 12 3.75ZM2.25 12C2.25 6.61522 6.61522 2.25 12 2.25C17.3848 2.25 21.75 6.61522 21.75 12C21.75 17.3848 17.3848 21.75 12 21.75C6.61522 21.75 2.25 17.3848 2.25 12Z" fill="black"/>
<path fill-rule="evenodd" clip-rule="evenodd" d="M12 8.54993C12.4142 8.54993 12.75 8.88571 12.75 9.29993V15.2999C12.75 15.7141 12.4142 16.0499 12 16.0499C11.5858 16.0499 11.25 15.7141 11.25 15.2999V9.29993C11.25 8.88571 11.5858 8.54993 12 8.54993Z" fill="white"/>
<path fill-rule="evenodd" clip-rule="evenodd" d="M11.95 9.51056L14.2697 11.8302C14.5626 12.1231 15.0374 12.1231 15.3303 11.8302C15.6232 11.5373 15.6232 11.0625 15.3303 10.7696L12.8303 8.26957C12.3374 7.77668 11.5625 7.77668 11.0696 8.26957L11.6 8.7999L11.0696 8.26957L8.56965 10.7696C8.27675 11.0625 8.27675 11.5373 8.56965 11.8302C8.86254 12.1231 9.33741 12.1231 9.63031 11.8302L11.95 9.51056Z" fill="white"/>
</svg>

<svg xmlns="http://www.w3.org/2000/svg" fill="none" viewBox="0 0 24 24">
  <path fill="#000" d="M12 21a9 9 0 1 0 0-18 9 9 0 0 0 0 18Z"/>
  <path fill="#000" fill-rule="evenodd" d="M12 3.75a8.25 8.25 0 1 0 0 16.5 8.25 8.25 0 0 0 0-16.5ZM2.25 12c0-5.385 4.365-9.75 9.75-9.75s9.75 4.365 9.75 9.75-4.365 9.75-9.75 9.75S2.25 17.385 2.25 12Z" clip-rule="evenodd"/>
  <path fill="#fff" fill-rule="evenodd" d="M12 8.55a.75.75 0 0 1 .75.75v6a.75.75 0 0 1-1.5 0v-6a.75.75 0 0 1 .75-.75Z" clip-rule="evenodd"/>
  <path fill="#fff" fill-rule="evenodd" d="m11.95 9.51 2.32 2.32a.75.75 0 1 0 1.06-1.06l-2.5-2.5a1.233 1.233 0 0 0-1.76 0l.53.53-.53-.53-2.5 2.5a.75.75 0 1 0 1.06 1.06l2.32-2.32Z" clip-rule="evenodd"/>
</svg>
